assets/img/braze_icons/play-circle.svg

<svg fill="none" height="24" viewBox="0 0 24 24" width="24" xmlns="http://www.w3.org/2000/svg"><path clip-rule="evenodd" d="m12 1c-6.07513 0-11 4.92487-11 11 0 6.0751 4.92487 11 11 11 6.0751 0 11-4.9249 11-11 0-6.07513-4.9249-11-11-11zm-2.40026 7.11608c-.09974.13323-.09974.37187-.09974.84916v6.06936c0 .4773 0 .7159.09974.8491.08692.1161.21997.1888.36464.1991.16602.0119.36672-.1172.76822-.3753l4.7206-3.0347c.3484-.2239.5226-.3359.5827-.4783.0526-.1244.0526-.2648 0-.3892-.0601-.1424-.2343-.2544-.5827-.4783l-4.7206-3.0347c-.4015-.2581-.6022-.38715-.76822-.37529-.14467.01033-.27772.08297-.36464.19907z" fill="#801ed7" fill-rule="evenodd"/></svg>

<svg width="24" height="24" viewBox="0 0 24 24" fill="none" xmlns="http://www.w3.org/2000/svg">
<path fill-rule="evenodd" clip-rule="evenodd" d="M12 1C5.92487 1 1 5.92487 1 12C1 18.0751 5.92487 23 12 23C18.0751 23 23 18.0751 23 12C23 5.92487 18.0751 1 12 1ZM9.59974 8.11608C9.5 8.24931 9.5 8.48795 9.5 8.96524V15.0346C9.5 15.5119 9.5 15.7505 9.59974 15.8837C9.68666 15.9998 9.81971 16.0725 9.96438 16.0828C10.1304 16.0947 10.3311 15.9656 10.7326 15.7075L15.4532 12.6728C15.8016 12.4489 15.9758 12.3369 16.0359 12.1945C16.0885 12.0701 16.0885 11.9297 16.0359 11.8053C15.9758 11.6629 15.8016 11.5509 15.4532 11.327L10.7326 8.2923C10.3311 8.0342 10.1304 7.90515 9.96438 7.91701C9.81971 7.92734 9.68666 7.99998 9.59974 8.11608Z" fill="#801ED7"/>
</svg>
